icons/liver.svg

<svg width="48" height="48" viewBox="0 0 48 48" fill="none" xmlns="http://www.w3.org/2000/svg">
<path fill-rule="evenodd" clip-rule="evenodd" d="M18 30.707C17.0781 31.0885 16.0352 31.3613 14.6885 31.3613C12.8526 31.3613 12.2458 32.8297 11.6009 34.3903C10.8697 36.1599 10.0895 38.0479 7.41312 38.0479C2.37634 38.0479 3.61914 22.5479 6.61916 16.5479C9.61919 10.5479 13.7245 10.0479 22.1192 10.0479C27.2615 10.0479 28.5655 10.8319 29.5758 11.4395C30.2149 11.8238 30.7364 12.1374 32.0374 12.1374C33.3805 12.1374 35.2609 11.7362 37.1413 11.335C39.9619 10.7332 42.7825 10.1315 43.7898 10.8837C45.4687 12.1374 40.432 21.3314 35.3952 21.3314C32.8027 21.3314 31.2481 23.1899 29.7392 24.9937C28.3166 26.6944 26.9347 28.3464 24.762 28.3464C22.6699 28.3464 21.311 29.0047 20 29.7061V39.5479H18V30.707ZM8.69292 35.6058C8.47288 35.8312 8.15654 36.0479 7.41312 36.0479H7.41083C7.35819 36.0479 7.31753 36.0479 7.21331 35.9452C7.06443 35.7986 6.8432 35.4767 6.62867 34.8677C6.19706 33.6425 5.97531 31.7877 6.00219 29.5721C6.05609 25.1293 7.08823 20.0818 8.40801 17.4423C9.7236 14.8111 11.1431 13.6011 13.0187 12.9314C15.091 12.1915 17.867 12.0479 22.1192 12.0479C22.4358 12.0479 22.7355 12.051 23.0192 12.0568C22.1361 13.1859 21.6549 14.4264 21.3967 15.502C21.1898 16.3644 21.1212 17.1377 21.104 17.6968C21.0953 17.9773 21.0996 18.2065 21.1063 18.3695C21.1097 18.451 21.1137 18.5161 21.1171 18.563L21.12 18.602L21.1215 18.6195L21.1231 18.6371L21.1237 18.6431L21.124 18.6465C21.124 18.6469 21.1241 18.6474 22.1191 18.5479C23.1142 18.4484 23.1142 18.4487 23.1142 18.4491L23.1119 18.4191C23.1099 18.3916 23.1071 18.3469 23.1046 18.2868C23.0996 18.1665 23.096 17.9856 23.103 17.7583C23.1171 17.3017 23.1735 16.6688 23.3415 15.9687C23.6443 14.7069 24.2935 13.2816 25.6646 12.2314C27.0451 12.408 27.6744 12.6758 28.0486 12.8693C28.2163 12.956 28.3581 13.0412 28.5502 13.1565L28.6079 13.1912C28.8138 13.3147 29.0948 13.4822 29.4246 13.632C30.1563 13.9642 30.9609 14.1374 32.0374 14.1374C33.0791 14.1374 34.2867 13.948 35.4295 13.7297C36.117 13.5983 36.872 13.4374 37.6006 13.2821C38.0667 13.1828 38.5224 13.0857 38.9423 13.0002C40.0902 12.7664 41.0754 12.5959 41.8452 12.5466C41.8838 12.5441 41.9212 12.542 41.9573 12.5402C41.7061 13.3297 41.1912 14.3795 40.46 15.4488C39.709 16.547 38.7994 17.5638 37.8539 18.2858C36.8904 19.0217 36.0515 19.3314 35.3952 19.3314C31.8714 19.3314 29.7796 21.8299 28.3949 23.4838L28.2639 23.6402C27.5199 24.5286 26.9555 25.2025 26.3463 25.6952C25.7756 26.1567 25.2963 26.3464 24.762 26.3464C22.723 26.3464 21.2212 26.8734 20 27.4589V23.0479C20 22.6526 20.195 22.2841 20.5335 21.9879C20.8909 21.6752 21.2902 21.5479 21.5 21.5479V19.5479C20.7098 19.5479 19.8591 19.9205 19.2165 20.4828C18.5727 21.0461 18.0298 21.8962 18.0012 22.9597H12.9072C10.5179 22.9597 7.65081 24.0112 10.5179 26.1135C12.5977 27.6385 16.186 26.4249 18 25.6433V28.5027C16.9811 29.0186 16.0552 29.3613 14.6885 29.3613C12.9882 29.3613 11.8003 30.1533 11.0098 31.2027C10.4285 31.9744 10.028 32.9519 9.74132 33.6517C9.73622 33.6642 9.73111 33.6767 9.72608 33.689C9.69086 33.7749 9.65739 33.8564 9.62554 33.9325C9.27146 34.7786 9.0088 35.2823 8.69292 35.6058Z" fill="black"/>
</svg>

<svg
  xmlns="http://www.w3.org/2000/svg"
  width="24"
  height="24"
  viewBox="0 0 24 24"
  fill="none"
  stroke="currentColor"
  stroke-width="2"
  stroke-linecap="round"
  stroke-linejoin="round"
>
  <path
    fill-rule="evenodd"
    d="M18 30.707a8.4 8.4 0 0 1-3.312.654c-1.835 0-2.442 1.469-3.087 3.03-.731 1.769-1.512 3.657-4.188 3.657-5.037 0-3.794-15.5-.794-21.5s7.106-6.5 15.5-6.5c5.143 0 6.447.784 7.457 1.392.639.384 1.16.697 2.461.697 1.343 0 3.224-.4 5.104-.802 2.82-.602 5.642-1.203 6.649-.451 1.679 1.253-3.358 10.447-8.395 10.447-2.592 0-4.147 1.859-5.656 3.663-1.422 1.7-2.804 3.352-4.977 3.352-2.092 0-3.451.659-4.762 1.36v9.842h-2zm-9.307 4.899c-.22.225-.536.442-1.28.442h-.002c-.053 0-.093 0-.198-.103-.149-.146-.37-.468-.584-1.077-.432-1.226-.654-3.08-.627-5.296.054-4.443 1.086-9.49 2.406-12.13 1.316-2.63 2.735-3.84 4.61-4.51 2.073-.74 4.849-.884 9.101-.884q.475 0 .9.009c-.883 1.129-1.364 2.37-1.622 3.445a11 11 0 0 0-.293 2.195 9 9 0 0 0 .013.866l.003.039.002.017.001.018v.006l.001.003.995-.098.995-.099-.002-.03-.007-.132a7 7 0 0 1-.002-.529c.014-.456.07-1.09.238-1.79.303-1.261.953-2.686 2.324-3.737 1.38.177 2.01.445 2.384.638.167.087.31.172.501.287l.058.035c.206.124.487.291.817.441.731.332 1.536.505 2.612.505 1.042 0 2.25-.189 3.392-.407a108 108 0 0 0 2.172-.448c.466-.1.921-.196 1.341-.282 1.148-.234 2.133-.404 2.903-.453l.112-.007c-.25.79-.766 1.84-1.497 2.909-.751 1.098-1.66 2.115-2.606 2.837-.964.736-1.803 1.045-2.459 1.045-3.524 0-5.615 2.499-7 4.153l-.131.156c-.744.889-1.308 1.563-1.918 2.055-.57.462-1.05.651-1.584.651-2.039 0-3.54.527-4.762 1.113v-4.411c0-.395.195-.764.534-1.06.357-.313.756-.44.966-.44v-2c-.79 0-1.64.373-2.283.935-.644.563-1.187 1.413-1.216 2.477h-5.094c-2.39 0-5.256 1.051-2.39 3.153 2.08 1.526 5.669.312 7.483-.47v2.86c-1.019.516-1.945.858-3.312.858-1.7 0-2.888.792-3.678 1.842-.582.771-.982 1.749-1.269 2.449l-.115.28c-.355.847-.617 1.35-.933 1.674"
    clip-rule="evenodd"
  />
</svg>
